X:2873
T: Iron Man, The
O:england
S:Toby A. Rider, Fiddle-L, 8/97
M:4/4
L:1/8
Q:128
K:A
A2c3/2A/ B3/2G/A3/2B/|c2e3/2c/ d3/2B/c/e3/2|f2d/f3/2 e2c/e3/2|(3dcB (3cBA G/B3/2B3/2c/|
W:. A E7 A A E7 A D A E7
A2c3/2A/ B3/2G/A3/2B/|c2e3/2c/ d3/2B/c/e3/2|f2d/f3/2e/a3/2c3/2A/|(3Bcd(3dcB c/A3/2A2|
W:. A E7 A A E7 A D A E7 A
a3/2A/g3/2A/ f3/2A/e3/2A/|(3cBAe3/2g/ a3/2e/c3/2A/|d3/2E/c3/2E/B3/2E/c3/2E/|(3dcB(3cBA (3Bcd(3efg|
W:. F#m E D A A Bm A E A E7 A Bm E7
a3/2A/g3/2A/ f3/2A/e3/2A/|(3cBAe3/2g/ a3/2e/c3/2A/|d2f3/2d/(3eag(3fed|(3cBA(3GAB A2A2|
W:. F#m E D A A D A Bm A E7 A
